;FLAVOR:Marlin
;TIME:13020
;Filament used: 7.19468m
;Layer height: 0.2
;MINX:67.018
;MINY:93.2
;MINZ:0.2
;MAXX:166.679
;MAXY:141.8
;MAXZ:77
;TARGET_MACHINE.NAME:Creality Ender-3
;Generated with Cura_SteamEngine 5.6.0
M140 S50
M105
M190 S50
M104 S200
M105
M109 S200
M82 ;absolute extrusion mode
; Ender 3 Custom Start G-code
G92 E0 ; Reset Extruder
G28 ; Home all axes
G1 Z2.0 F3000 ; Move Z Axis up little to prevent scratching of Heat Bed
G1 X0.1 Y20 Z0.3 F5000.0 ; Move to start position
G1 X0.1 Y200.0 Z0.3 F1500.0 E15 ; Draw the first line
G1 X0.4 Y200.0 Z0.3 F5000.0 ; Move to side a little
G1 X0.4 Y20 Z0.3 F1500.0 E30 ; Draw the second line
G92 E0 ; Reset Extruder
G1 Z2.0 F3000 ; Move Z Axis up little to prevent scratching of Heat Bed
G1 X5 Y20 Z0.3 F5000.0 ; Move over to prevent blob squish
G92 E0
G92 E0
G1 F2700 E-5
;LAYER_COUNT:385
;LAYER:0
M107
G0 F6000 X75.6 Y101.921 Z0.2
;TYPE:SKIRT
G1 F2700 E0
G1 F1200 X77.541 Y100.755 E0.07531
G1 X84.925 Y98.686 E0.33036
G1 X87.132 Y98.524 E0.40397
G1 X94.86 Y100.689 E0.6709
G1 X96.203 Y101.387 E0.72124
G1 X97.057 Y101.258 E0.74996
G1 X97.105 Y101.106 E0.75526
G1 X98.154 Y99.084 E0.83103
G1 X99.747 Y97.614 E0.90312
G1 X101.391 Y96.652 E0.96648
G1 X102.119 Y96.363 E0.99253
G1 X103.57 Y96.157 E1.04127
G1 X105.061 Y94.764 E1.10914
G1 X107.084 Y93.557 E1.18749
G1 X108.802 Y93.275 E1.2454
G1 X136.166 Y93.2 E2.15553
G1 X138.062 Y93.666 E2.22047
G1 X140.09 Y94.719 E2.29647
G1 X141.552 Y96.283 E2.36768
G1 X142.585 Y98.047 E2.43567
G1 X146.116 Y97.058 E2.55763
G1 X148.323 Y96.896 E2.63123
G1 X156.034 Y99.055 E2.89756
G1 X157.991 Y100.072 E2.97092
G1 X163.488 Y105.886 E3.23704
G1 X164.476 Y107.44 E3.29829
G1 X166.677 Y114.95 E3.55858
G1 X166.679 Y117.295 E3.63657
G1 X164.597 Y124.743 E3.89379
G1 X163.634 Y126.567 E3.96239
G1 X158.172 Y132.029 E4.21931
G1 X156.392 Y133.173 E4.28969
G1 X148.886 Y135.268 E4.54888
G1 X146.611 Y135.429 E4.62473
G1 X143.113 Y134.408 E4.74593
G1 X143.113 Y134.853 E4.76073
G1 X142.647 Y136.749 E4.82567
G1 X141.594 Y138.777 E4.90167
G1 X140.033 Y140.236 E4.97274
G1 X138.01 Y141.443 E5.05109
G1 X136.292 Y141.725 E5.109
G1 X108.907 Y141.8 E6.01983
G1 X107.065 Y141.349 E6.0829
G1 X104.987 Y140.276 E6.16069
G1 X103.748 Y138.929 E6.22156
G1 X103.527 Y138.919 E6.22892
G1 X101.726 Y138.485 E6.29053
G1 X99.66 Y137.411 E6.36798
G1 X98.187 Y135.835 E6.43973
G1 X97.217 Y134.173 E6.50373
G1 X97.054 Y133.762 E6.51844
G1 X96.94 Y133.735 E6.52233
G1 X95.214 Y134.847 E6.59062
G1 X87.695 Y136.946 E6.85027
G1 X85.419 Y137.107 E6.92616
G1 X77.948 Y134.926 E7.18502
G1 X76.067 Y133.915 E7.25604
G1 X70.417 Y128.265 E7.5218
G1 X69.311 Y126.558 E7.58945
G1 X67.181 Y119.262 E7.84225
G1 X67.018 Y116.94 E7.91967
G1 X69.206 Y109.452 E8.17913
G1 X70.097 Y107.736 E8.24344
G1 X75.6 Y101.921 E8.50973
G0 F6000 X75.854 Y102.235
G1 F1200 X77.702 Y101.125 E8.58143
G1 X84.993 Y99.082 E8.83327
G1 X87.092 Y98.928 E8.90327
G1 X94.71 Y101.062 E9.1664
G1 X96.133 Y101.802 E9.21974
G1 X97.384 Y101.612 E9.26183
G1 X97.46 Y101.29 E9.27283
G1 X98.477 Y99.33 E9.34628
G1 X99.985 Y97.939 E9.41451
G1 X101.539 Y97.024 E9.47449
G1 X102.224 Y96.752 E9.49901
G1 X103.812 Y96.526 E9.55235
G1 X103.923 Y96.374 E9.55861
G1 X105.3 Y95.088 E9.62128
G1 X107.224 Y93.94 E9.6958
G1 X108.867 Y93.67 E9.75118
G1 X136.12 Y93.6 E10.65762
G1 X137.919 Y94.042 E10.71923
G1 X139.845 Y95.042 E10.79141
G1 X141.228 Y96.522 E10.85879
G1 X142.214 Y98.197 E10.92343
G1 X142.353 Y98.527 E10.93534
G1 X146.184 Y97.454 E11.06766
G1 X148.283 Y97.3 E11.13767
G1 X155.884 Y99.428 E11.4002
G1 X157.746 Y100.396 E11.47
G1 X163.17 Y106.132 E11.73256
G1 X164.109 Y107.609 E11.79078
G1 X166.277 Y115.008 E12.04722
G1 X166.279 Y117.241 E12.12149
G1 X164.224 Y124.592 E12.37535
G1 X163.308 Y126.327 E12.44061
G1 X157.92 Y131.715 E12.69404
G1 X156.225 Y132.804 E12.76105
G1 X148.818 Y134.872 E13.01683
G1 X146.654 Y135.025 E13.08899
G1 X142.713 Y133.875 E13.22553
G1 X142.713 Y134.807 E13.25653
G1 X142.271 Y136.606 E13.31814
G1 X141.271 Y138.532 E13.39032
G1 X139.794 Y139.912 E13.45755
G1 X137.87 Y141.06 E13.53207
G1 X136.227 Y141.33 E13.58745
G1 X108.957 Y141.4 E14.49446
G1 X107.202 Y140.97 E14.55456
G1 X105.234 Y139.954 E14.62822
G1 X103.922 Y138.528 E14.69267
G1 X103.621 Y138.53 E14.70268
G1 X101.866 Y138.107 E14.76273
G1 X99.905 Y137.088 E14.83623
G1 X98.512 Y135.598 E14.90407
G1 X97.563 Y133.971 E14.96672
G1 X97.351 Y133.422 E14.98629
G1 X96.833 Y133.298 E15.00401
G1 X96.703 Y133.414 E15.0098
G1 X95.047 Y134.478 E15.07527
G1 X87.627 Y136.55 E15.3315
G1 X85.462 Y136.703 E15.40369
G1 X78.098 Y134.553 E15.65884
G1 X76.31 Y133.592 E15.72636
G1 X70.731 Y128.013 E15.98878
G1 X69.678 Y126.388 E16.05318
G1 X67.577 Y119.191 E16.30254
G1 X67.422 Y116.983 E16.37616
G1 X69.579 Y109.601 E16.63196
G1 X70.425 Y107.972 E16.69301
G1 X75.854 Y102.235 E16.95571
G0 F6000 X76.108 Y102.549
G1 F1200 X77.863 Y101.495 E17.0238
G1 X85.061 Y99.478 E17.27243
G1 X87.052 Y99.332 E17.33883
G1 X94.56 Y101.435 E17.59816
G1 X96.098 Y102.235 E17.65582
G1 X96.246 Y102.184 E17.66103
G1 X97.71 Y101.968 E17.71025
G1 X97.838 Y101.43 E17.72864
G1 X98.8 Y99.576 E17.79811
G1 X100.223 Y98.263 E17.86251
G1 X101.742 Y97.369 E17.92113
G1 X102.328 Y97.141 E17.94205
G1 X104.051 Y96.896 E17.99993
G1 X104.196 Y96.666 E18.00897
G1 X105.542 Y95.409 E18.07023
G1 X107.362 Y94.323 E18.14072
G1 X108.932 Y94.065 E18.19364
G1 X136.073 Y94 E19.09635
G1 X137.777 Y94.419 E19.15472
G1 X139.6 Y95.365 E19.22303
G1 X140.907 Y96.764 E19.2867
G1 X141.845 Y98.352 E19.34805
G1 X142.002 Y98.725 E19.36151
G1 X142.06 Y99.024 E19.37164
G1 X146.252 Y97.85 E19.51643
G1 X148.243 Y97.704 E19.58283
G1 X155.736 Y99.802 E19.84163
G1 X157.5 Y100.719 E19.90776
G1 X162.852 Y106.378 E20.16682
G1 X163.742 Y107.778 E20.22199
G1 X165.877 Y115.066 E20.47458
G1 X165.879 Y117.187 E20.54513
G1 X163.851 Y124.441 E20.79565
G1 X162.982 Y126.087 E20.85755
G1 X157.665 Y131.404 E21.10765
G1 X156.061 Y132.435 E21.17107
G1 X148.75 Y134.476 E21.42353
G1 X146.697 Y134.621 E21.49198
G1 X142.313 Y133.342 E21.64388
G1 X142.313 Y134.76 E21.69104
G1 X141.894 Y136.464 E21.7494
G1 X140.948 Y138.287 E21.81771
G1 X139.552 Y139.591 E21.88125
G1 X137.732 Y140.677 E21.95174
G1 X136.162 Y140.935 E22.00466
G1 X109.007 Y141 E22.90784
G1 X107.341 Y140.592 E22.96489
G1 X105.48 Y139.631 E23.03455
G1 X104.252 Y138.302 E23.09474
G1 X104.135 Y138.127 E23.10174
G1 X103.668 Y138.13 E23.11727
G1 X102.006 Y137.729 E23.17414
G1 X100.15 Y136.765 E23.2437
G1 X98.835 Y135.358 E23.30775
G1 X97.936 Y133.826 E23.36683
G1 X97.726 Y133.286 E23.3861
G1 X97.687 Y133.092 E23.39268
G1 X96.709 Y132.856 E23.42614
G1 X96.487 Y133.078 E23.43659
G1 X94.883 Y134.109 E23.50001
G1 X87.559 Y136.154 E23.75292
G1 X85.505 Y136.299 E23.82141
G1 X78.248 Y134.18 E24.07285
G1 X76.553 Y133.269 E24.13686
G1 X71.043 Y127.759 E24.39603
G1 X70.046 Y126.22 E24.45702
G1 X67.973 Y119.12 E24.70303
G1 X67.826 Y117.026 E24.77285
G1 X69.952 Y109.75 E25.02497
G1 X70.753 Y108.208 E25.08276
G1 X76.108 Y102.549 E25.34189
G0 F6000 X76.36 Y102.865
G1 F1200 X78.024 Y101.865 E25.40646
G1 X85.129 Y99.874 E25.65188
G1 X87.012 Y99.736 E25.71467
G1 X94.41 Y101.808 E25.9702
G1 X96.086 Y102.68 E26.03304
G1 X96.305 Y102.58 E26.04105
G1 X98.036 Y102.324 E26.09924
G1 X98.216 Y101.57 E26.12503
G1 X99.123 Y99.822 E26.19053
G1 X100.462 Y98.586 E26.25114
G1 X101.887 Y97.742 E26.30622
G1 X102.431 Y97.53 E26.32564
G1 X104.097 Y97.293 E26.38161
G1 X104.298 Y97.287 E26.3883
G1 X104.469 Y96.958 E26.40063
G1 X105.784 Y95.73 E26.46047
G1 X107.5 Y94.706 E26.52694
G1 X108.997 Y94.46 E26.57739
G1 X136.027 Y94.4 E27.47642
G1 X137.634 Y94.795 E27.53146
G1 X139.355 Y95.688 E27.59595
G1 X140.584 Y97.004 E27.65583
G1 X141.476 Y98.507 E27.71397
G1 X141.633 Y98.88 E27.72743
G1 X141.733 Y99.531 E27.74933
G1 X146.32 Y98.246 E27.90777
G1 X148.203 Y98.108 E27.97057
G1 X155.588 Y100.176 E28.22564
G1 X157.254 Y101.042 E28.28809
G1 X162.534 Y106.624 E28.54365
G1 X163.375 Y107.947 E28.59579
G1 X165.477 Y115.124 E28.84452
G1 X165.479 Y117.133 E28.91134
G1 X163.478 Y124.29 E29.15852
G1 X162.656 Y125.847 E29.21708
G1 X157.413 Y131.09 E29.46369
G1 X155.894 Y132.066 E29.52374
G1 X148.682 Y134.08 E29.77279
G1 X146.74 Y134.217 E29.83754
G1 X142.057 Y132.851 E29.99979
G1 X141.913 Y132.891 E30.00476
G1 X141.913 Y134.714 E30.0654
G1 X141.518 Y136.321 E30.12044
G1 X140.625 Y138.042 E30.18492
G1 X139.31 Y139.27 E30.24477
G1 X137.594 Y140.294 E30.31123
G1 X136.097 Y140.54 E30.36169
G1 X109.057 Y140.6 E31.26104
G1 X107.478 Y140.213 E31.31512
G1 X105.727 Y139.309 E31.38066
G1 X104.546 Y138.031 E31.43854
G1 X104.355 Y137.726 E31.45051
G1 X103.715 Y137.73 E31.47179
G1 X102.146 Y137.351 E31.52548
G1 X100.395 Y136.442 E31.5911
G1 X99.156 Y135.116 E31.65146
G1 X98.309 Y133.681 E31.70688
G1 X98.099 Y133.141 E31.72615
G1 X98.034 Y132.709 E31.74068
G1 X97.738 Y132.697 E31.75053
G1 X96.585 Y132.414 E31.79002
G1 X96.235 Y132.764 E31.80648
G1 X94.716 Y133.74 E31.86653
G1 X87.491 Y135.758 E32.11604
G1 X85.548 Y135.895 E32.18082
G1 X78.398 Y133.807 E32.42856
G1 X76.796 Y132.946 E32.48905
G1 X71.357 Y127.507 E32.74489
G1 X70.413 Y126.05 E32.80263
G1 X68.369 Y119.049 E33.04521
G1 X68.23 Y117.069 E33.11122
G1 X70.325 Y109.899 E33.35967
G1 X71.082 Y108.441 E33.41431
G1 X76.36 Y102.865 E33.66968
G0 F6000 X76.614 Y103.179
G1 F1200 X78.185 Y102.235 E33.73064
G1 X85.197 Y100.27 E33.97284
G1 X86.972 Y100.14 E34.03203
G1 X94.262 Y102.182 E34.28383
G1 X95.776 Y102.969 E34.34059
G1 X96.014 Y103.187 E34.35132
G1 X96.365 Y102.976 E34.36494
G1 X98.039 Y102.724 E34.42125
G1 X98.353 Y102.716 E34.43169
G1 X98.594 Y101.71 E34.4661
G1 X99.446 Y100.068 E34.52763
G1 X100.703 Y98.908 E34.58452
G1 X102.032 Y98.115 E34.63599
G1 X102.534 Y97.919 E34.65392
G1 X104.153 Y97.689 E34.7083
G1 X104.542 Y97.685 E34.72124
G1 X104.792 Y97.203 E34.7393
G1 X106.026 Y96.051 E34.79545
G1 X107.638 Y95.089 E34.85789
G1 X109.062 Y94.855 E34.90589
G1 X135.981 Y94.8 E35.80122
G1 X137.491 Y95.171 E35.85293
G1 X139.11 Y96.011 E35.9136
G1 X140.262 Y97.245 E35.96975
G1 X141.132 Y98.711 E36.02645
G1 X141.246 Y98.992 E36.03653
G1 X141.406 Y100.038 E36.07173
G1 X146.388 Y98.642 E36.24381
G1 X148.163 Y98.512 E36.30301
G1 X155.44 Y100.55 E36.55435
G1 X157.008 Y101.365 E36.61313
G1 X162.216 Y106.87 E36.86518
G1 X163.008 Y108.116 E36.91428
G1 X165.077 Y115.182 E37.15917
G1 X165.079 Y117.079 E37.22226
G1 X163.105 Y124.139 E37.46608
G1 X162.33 Y125.607 E37.5213
G1 X157.158 Y130.779 E37.76457
G1 X155.73 Y131.697 E37.82103
G1 X148.614 Y133.684 E38.06677
G1 X146.783 Y133.813 E38.12782
G1 X142.061 Y132.435 E38.29142
G1 X141.513 Y132.587 E38.31034
G1 X141.513 Y134.668 E38.37955
G1 X141.142 Y136.178 E38.43127
G1 X140.302 Y137.797 E38.49193
G1 X139.068 Y138.949 E38.54808
G1 X137.456 Y139.911 E38.61052
G1 X136.032 Y140.145 E38.65852
G1 X109.107 Y140.2 E39.55405
G1 X107.617 Y139.835 E39.60507
G1 X105.975 Y138.987 E39.66654
G1 X104.84 Y137.759 E39.72215
G1 X104.581 Y137.325 E39.73896
G1 X103.762 Y137.33 E39.7662
G1 X102.286 Y136.973 E39.81671
G1 X100.64 Y136.119 E39.87839
G1 X99.479 Y134.876 E39.93496
G1 X98.682 Y133.536 E39.98681
G1 X98.487 Y133.035 E40.0047
G1 X98.377 Y132.309 E40.02912
G1 X97.833 Y132.309 E40.04721
G1 X96.461 Y131.972 E40.0942
G1 X95.98 Y132.453 E40.11683
G1 X94.552 Y133.371 E40.17329
G1 X87.423 Y135.362 E40.41947
G1 X85.591 Y135.491 E40.48056
G1 X78.548 Y133.434 E40.72459
G1 X77.039 Y132.623 E40.78157
G1 X71.671 Y127.255 E41.03407
G1 X70.78 Y125.88 E41.08856
G1 X68.765 Y118.978 E41.32771
G1 X68.634 Y117.112 E41.38992
G1 X70.698 Y110.048 E41.6347
G1 X71.41 Y108.677 E41.68608
G1 X76.614 Y103.179 E41.93787
G0 F6000 X76.868 Y103.493
G1 F1200 X78.346 Y102.605 E41.99522
G1 X85.265 Y100.666 E42.23421
G1 X86.932 Y100.544 E42.2898
G1 X94.114 Y102.556 E42.53787
G1 X95.592 Y103.324 E42.59327
G1 X95.943 Y103.695 E42.61026
G1 X96.501 Y103.361 E42.63189
G1 X98.099 Y103.12 E42.68564
G1 X98.669 Y103.112 E42.7046
G1 X98.972 Y101.85 E42.74777
G1 X99.769 Y100.314 E42.80532
G1 X100.941 Y99.232 E42.85838
G1 X102.237 Y98.459 E42.90857
G1 X102.634 Y98.309 E42.92268
G1 X104.157 Y98.089 E42.97386
G1 X104.786 Y98.082 E42.99478
G1 X105.115 Y97.448 E43.01854
G1 X106.268 Y96.372 E43.07099
G1 X107.776 Y95.472 E43.1294
G1 X109.127 Y95.25 E43.17494
G1 X135.934 Y95.2 E44.06655
G1 X137.349 Y95.548 E44.11501
G1 X138.865 Y96.334 E44.17181
G1 X139.941 Y97.487 E44.22426
G1 X140.761 Y98.861 E44.27748
G1 X140.858 Y99.101 E44.28609
G1 X141.079 Y100.545 E44.33468
G1 X146.456 Y99.038 E44.52041
G1 X148.123 Y98.916 E44.576
G1 X155.292 Y100.924 E44.82362
G1 X156.762 Y101.688 E44.87872
G1 X161.898 Y107.116 E45.12727
G1 X162.641 Y108.285 E45.17334
G1 X164.677 Y115.24 E45.41437
G1 X164.679 Y117.025 E45.47374
G1 X162.732 Y123.988 E45.71421
G1 X162.004 Y125.367 E45.76608
G1 X156.906 Y130.465 E46.00587
G1 X155.563 Y131.328 E46.05897
G1 X148.546 Y133.288 E46.30129
G1 X146.826 Y133.409 E46.35864
G1 X142.064 Y132.019 E46.52363
G1 X141.113 Y132.284 E46.55647
G1 X141.113 Y134.621 E46.63419
G1 X140.765 Y136.036 E46.68266
G1 X139.979 Y137.552 E46.73946
G1 X138.826 Y138.628 E46.79191
G1 X137.318 Y139.528 E46.85032
G1 X135.967 Y139.75 E46.89586
G1 X109.153 Y139.8 E47.7877
G1 X107.758 Y139.458 E47.83547
G1 X106.222 Y138.665 E47.89296
G1 X105.161 Y137.517 E47.94495
G1 X104.806 Y136.924 E47.96794
G1 X103.809 Y136.93 E48.0011
G1 X102.426 Y136.595 E48.04843
G1 X100.885 Y135.796 E48.10617
G1 X99.803 Y134.637 E48.1589
G1 X99.026 Y133.331 E48.20945
G1 X98.877 Y132.935 E48.22352
G1 X98.722 Y131.909 E48.25803
G1 X97.879 Y131.909 E48.28607
G1 X96.511 Y131.573 E48.33292
G1 X96.359 Y131.508 E48.33842
G1 X95.728 Y132.139 E48.3681
G1 X94.385 Y133.002 E48.4212
G1 X87.355 Y134.966 E48.66397
G1 X85.634 Y135.087 E48.72135
G1 X78.698 Y133.061 E48.96168
G1 X77.282 Y132.3 E49.01515
G1 X71.985 Y127.003 E49.2643
G1 X71.147 Y125.71 E49.31555
G1 X69.161 Y118.907 E49.55126
G1 X69.038 Y117.155 E49.60968
G1 X71.071 Y110.197 E49.85078
G1 X71.738 Y108.913 E49.8989
G1 X76.868 Y103.493 E50.14712
G0 F6000 X77.122 Y103.807
G1 F1200 X78.507 Y102.975 E50.20086
G1 X85.333 Y101.062 E50.43664
G1 X86.892 Y100.948 E50.48863
G1 X93.964 Y102.929 E50.7329
G1 X95.347 Y103.648 E50.78474
G1 X95.872 Y104.203 E50.81015
G1 X96.636 Y103.746 E50.83976
G1 X98.159 Y103.516 E50.89099
G1 X99.037 Y103.509 E50.92019
G1 X99.048 Y103.246 E50.92895
G1 X99.35 Y101.99 E50.97191
G1 X100.092 Y100.56 E51.0255
G1 X101.179 Y99.556 E51.07471
G1 X102.442 Y98.803 E51.12362
G1 X102.734 Y98.699 E51.13393
G1 X104.162 Y98.489 E51.18194
G1 X105.03 Y98.479 E51.21081
G1 X105.438 Y97.693 E51.24026
G1 X106.51 Y96.693 E51.28902
G1 X107.914 Y95.855 E51.3434
G1 X109.192 Y95.645 E51.38648
G1 X135.888 Y95.6 E52.2744
G1 X137.206 Y95.924 E52.31954
G1 X138.62 Y96.657 E52.37251
G1 X139.62 Y97.729 E52.42127
G1 X140.418 Y99.066 E52.47306
G1 X140.47 Y99.209 E52.47812
G1 X140.683 Y100.597 E52.52482
G1 X140.687 Y101.07 E52.54056
G1 X146.524 Y99.434 E52.74218
G1 X148.083 Y99.32 E52.79417
G1 X155.144 Y101.298 E53.03806
G1 X156.516 Y102.011 E53.08949
G1 X161.58 Y107.362 E53.33452
G1 X162.274 Y108.454 E53.37756
G1 X164.277 Y115.298 E53.61474
G1 X164.279 Y116.971 E53.67038
G1 X162.359 Y123.837 E53.90751
G1 X161.678 Y125.127 E53.95602
G1 X156.654 Y130.151 E54.19234
G1 X155.396 Y130.959 E54.24207
G1 X148.478 Y132.892 E54.48097
G1 X146.869 Y133.005 E54.53462
G1 X142.067 Y131.603 E54.701
G1 X140.713 Y131.981 E54.74776
G1 X140.713 Y134.575 E54.83404
G1 X140.389 Y135.893 E54.87918
G1 X139.656 Y137.307 E54.93215
G1 X138.584 Y138.307 E54.98091
G1 X137.18 Y139.145 E55.03529
G1 X135.902 Y139.355 E55.07837
G1 X109.203 Y139.4 E55.96638
G1 X107.897 Y139.08 E56.01111
